assets/symbols/mulberry/book_end.svg

<svg height="850.394" viewBox="0 0 850.394 850.394" width="850.394" xmlns="http://www.w3.org/2000/svg"><g fill="#c8c8c8"><path d="m471.14 336.35h-4.16v-185.16h87.08v90.03h-82.92zm-91.04-185.16v91.15h-85.79v95.13h-1.26v-186.28z"/><path d="m380.1 242.34v-91.15h86.88v90.03h-84.25v95.13h-2.63zm0 94.01v347.23h-87.05v-346.11h84.08v-95.13h2.97z"/><path d="m380.1 683.58v-347.23h85.45v-95.13h1.43v442.36zm173.96-317.58v317.58h-87.08v-347.23h86.98v-95.13h.1z"/></g><path d="m789.63 596.92v86.7l-235.57-.04v-317.58l96.41 1.85v229.07zm-496.58-230.92v317.25h-235.11v-86.71h139.15v-229.06l94.91-1.48z" fill="#ed1d31"/><path d="m471.14 241.22h82.82v95.13h-82.82zm-88.41 0h82.82v95.13h-82.82zm-88.42 1.12h82.82v95.13h-82.82z" fill="#ffffc2"/><g fill="none" stroke="#231f20" stroke-width="21"><path d="m466.98 151.19h87.08v532.39h-261.01v-532.39h87.05zm0 532.39v-532.39m-86.88 532.39v-532.39"/><path d="m554 366h.06l96.41 1.85v229.07h139.16v86.7l-235.57-.04m-262.06-317.58-94.91 1.48v229.06h-139.15v86.71h229.41m6.96-440.91h82.82v95.13h-82.82zm88.42-1.12h82.82v95.13h-82.82zm88.41 0h82.82v95.13h-82.82z"/></g><path d="m0 0h850.394v850.394h-850.394z" fill="none"/><path d="m658.931 67.718-.87 220.054m50.232-52.574-50.431 53.612-48.502-55.431" fill="none" stroke="#23201f" stroke-width="21"/></svg>

<svg xmlns="http://www.w3.org/2000/svg" width="850.394" height="850.394" viewBox="0 0 850.394 850.394" overflow="visible"><path fill="#c8c8c8" d="M471.14 336.35h-4.16V151.19h87.08v90.03H471.14zM380.1 151.19v91.15H294.31v95.13h-1.26V151.19z"/><path fill="#c8c8c8" d="M380.1 242.34v-91.15h86.88v90.03h-84.25v95.13h-2.63zM380.1 336.35v347.23h-87.05V337.47h84.08v-95.13h2.97z"/><path fill="#c8c8c8" d="M380.1 683.58V336.35H465.55v-95.13h1.43v442.36zM554.06 366v317.58H466.98V336.35H553.96v-95.13h.1z"/><path fill="#ed1d31" d="M789.63 596.92v86.7l-235.57-.04V366l96.41 1.85v229.07zM293.05 366v317.25H57.94v-86.71h139.15V367.48L292 366z"/><path fill="#ffffc2" d="M471.14 241.22h82.82v95.13h-82.82zM382.73 241.22h82.82v95.13h-82.82zM294.31 242.34h82.82v95.13h-82.82z"/><g fill="none" stroke="#231f20" stroke-width="21"><path d="M466.98 151.19h87.08v532.39H293.05V151.19h87.05zM466.98 683.58V151.19M380.1 683.58V151.19"/><path d="M554 366h.06l96.41 1.85v229.07h139.16v86.7l-235.57-.04M292 366l-94.91 1.48v229.06H57.94v86.71h229.41M294.31 242.34h82.82v95.13h-82.82zM382.73 241.22h82.82v95.13h-82.82zM471.14 241.22h82.82v95.13h-82.82z"/></g><path fill="none" d="M0 0h850.394v850.394H0z"/><path fill="none" stroke="#23201f" stroke-width="21" d="M658.931 67.718l-.87 220.054M708.293 235.198l-50.431 53.612-48.502-55.431"/></svg>
